packages/react/src/components/base/Icon/assets/icon-lg-shield.svg

<svg width="24" height="24" viewBox="0 0 24 24" xmlns="http://www.w3.org/2000/svg" fill="currentColor"> <path d="M7.70563 10.8319C7.81653 10.5549 8.03291 10.3333 8.30718 10.2159C8.58145 10.0984 8.89114 10.0947 9.16813 10.2056L11.375 11.0887V9C11.375 8.70163 11.4935 8.41548 11.7045 8.2045C11.9155 7.99353 12.2016 7.875 12.5 7.875C12.7984 7.875 13.0845 7.99353 13.2955 8.2045C13.5065 8.41548 13.625 8.70163 13.625 9V11.0887L15.8319 10.2056C16.1083 10.0975 16.4163 10.1029 16.6887 10.2208C16.9611 10.3387 17.1759 10.5596 17.2862 10.8351C17.3966 11.1107 17.3935 11.4187 17.2777 11.6921C17.162 11.9654 16.9428 12.1819 16.6681 12.2944L14.2812 13.2497L15.65 15.075C15.7386 15.1932 15.8031 15.3277 15.8398 15.4708C15.8765 15.6139 15.8846 15.7628 15.8637 15.9091C15.8428 16.0554 15.7933 16.1961 15.718 16.3232C15.6428 16.4503 15.5432 16.5614 15.425 16.65C15.3068 16.7386 15.1723 16.8031 15.0292 16.8398C14.8861 16.8765 14.7372 16.8846 14.5909 16.8637C14.4446 16.8428 14.3039 16.7933 14.1768 16.718C14.0497 16.6428 13.9386 16.5432 13.85 16.425L12.5 14.625L11.15 16.425C11.0614 16.5432 10.9503 16.6428 10.8232 16.718C10.6961 16.7933 10.5554 16.8428 10.4091 16.8637C10.2628 16.8846 10.1139 16.8765 9.9708 16.8398C9.82768 16.8031 9.69319 16.7386 9.575 16.65C9.45681 16.5614 9.35724 16.4503 9.28197 16.3232C9.2067 16.1961 9.1572 16.0554 9.13631 15.9091C9.11541 15.7628 9.12353 15.6139 9.1602 15.4708C9.19686 15.3277 9.26136 15.1932 9.35 15.075L10.7188 13.2497L8.33187 12.2944C8.0549 12.1835 7.83331 11.9671 7.71587 11.6928C7.59843 11.4186 7.59474 11.1089 7.70563 10.8319ZM21.875 5.25V10.5C21.875 15.5897 19.4075 18.6769 17.3375 20.3709C15.1147 22.1887 12.89 22.8084 12.7963 22.8356C12.6022 22.8881 12.3978 22.8881 12.2037 22.8356C12.11 22.8094 9.88531 22.1887 7.6625 20.3709C5.5925 18.6769 3.125 15.5897 3.125 10.5V5.25C3.125 4.75272 3.32254 4.27581 3.67417 3.92417C4.02581 3.57254 4.50272 3.375 5 3.375H20C20.4973 3.375 20.9742 3.57254 21.3258 3.92417C21.6775 4.27581 21.875 4.75272 21.875 5.25ZM19.625 5.625H5.375V10.5C5.375 13.8478 6.60219 16.5647 9.02281 18.5766C10.0602 19.4329 11.2362 20.106 12.5 20.5669C13.7637 20.1058 14.9396 19.4327 15.9772 18.5766C18.3978 16.5647 19.625 13.8478 19.625 10.5V5.625Z"/> </svg>

<svg viewBox="0 0 24 24" xmlns="http://www.w3.org/2000/svg" aria-hidden="true" fill="currentColor"><path d="M7.706 10.832a1.125 1.125 0 0 1 1.462-.626l2.207.883V9a1.125 1.125 0 1 1 2.25 0v2.089l2.207-.883a1.125 1.125 0 0 1 .836 2.088l-2.387.956 1.369 1.825a1.127 1.127 0 0 1-1.06 1.789 1.12 1.12 0 0 1-.74-.439l-1.35-1.8-1.35 1.8a1.123 1.123 0 0 1-1.868-.102 1.125 1.125 0 0 1 .068-1.248l1.369-1.825-2.387-.956a1.125 1.125 0 0 1-.626-1.462M21.875 5.25v5.25c0 5.09-2.468 8.177-4.538 9.87-2.222 1.819-4.447 2.438-4.54 2.466a1.14 1.14 0 0 1-.593 0c-.094-.027-2.319-.647-4.542-2.465-2.07-1.694-4.537-4.781-4.537-9.871V5.25A1.875 1.875 0 0 1 5 3.375h15a1.875 1.875 0 0 1 1.875 1.875m-2.25.375H5.375V10.5c0 3.348 1.227 6.065 3.648 8.077a11.8 11.8 0 0 0 3.477 1.99 11.8 11.8 0 0 0 3.477-1.99c2.42-2.012 3.648-4.73 3.648-8.077z"/></svg>
